Project/img/googleplus.svg

<svg xmlns="http://www.w3.org/2000/svg" xmlns:xlink="http://www.w3.org/1999/xlink" preserveAspectRatio="xMidYMid" width="16" height="13.78" viewBox="0 0 16 13.78">
  <defs>
    <style>
      .cls-1 {
        fill: #95e1d3;
        fill-rule: evenodd;
      }
    </style>
  </defs>
  <path d="M13.500,3.467 L13.500,5.907 L12.500,5.907 L12.500,3.467 L10.000,3.467 L10.000,2.469 L12.500,2.469 L12.500,0.029 L13.500,0.029 L13.500,2.469 L16.000,2.469 L16.000,3.467 L13.500,3.467 ZM6.585,0.996 C7.473,1.487 7.993,2.284 7.993,3.327 C7.993,4.203 7.452,4.893 6.754,5.429 C6.073,5.951 5.944,6.171 5.944,6.615 C5.944,6.993 6.673,7.639 7.055,7.904 C8.169,8.678 8.499,9.397 8.499,10.597 C8.499,12.094 7.055,13.766 4.383,13.766 C2.039,13.766 -0.000,12.645 -0.000,11.148 C-0.000,9.628 1.866,8.161 4.209,8.161 C4.465,8.161 4.699,8.151 4.941,8.151 C4.620,7.844 4.367,7.463 4.367,7.000 C4.367,6.725 4.456,6.450 4.580,6.215 C4.453,6.224 4.323,6.203 4.189,6.203 C2.265,6.203 0.975,4.812 0.975,3.146 C0.975,1.515 2.756,0.013 4.648,0.013 C5.703,0.013 8.868,0.013 8.868,0.013 L7.923,0.996 L6.585,0.996 ZM4.656,8.549 C3.036,8.532 1.585,9.519 1.585,10.705 C1.585,11.914 2.755,12.799 4.374,12.799 C6.651,12.799 7.445,11.976 7.445,10.767 C7.445,10.621 7.427,10.478 7.393,10.339 C7.215,9.654 6.585,9.315 5.705,8.715 C5.386,8.613 5.034,8.554 4.656,8.549 ZM6.476,3.346 C6.287,1.944 5.207,0.818 4.120,0.787 C3.033,0.755 2.304,1.828 2.492,3.230 C2.680,4.633 3.713,5.796 4.800,5.827 C5.887,5.859 6.663,4.748 6.476,3.346 Z" class="cls-1"/>
</svg>

<svg xmlns="http://www.w3.org/2000/svg" width="16" height="13.78" preserveAspectRatio="xMidYMid"><defs><style>.cls-1 { fill: #95e1d3; fill-rule: evenodd; }</style></defs><path d="M13.5 3.47V5.9h-1V3.48H10v-1h2.5V.03h1v2.44H16v1h-2.5zM6.6 1c.87.5 1.4 1.28 1.4 2.33 0 .87-.55 1.56-1.25 2.1-.68.52-.8.74-.8 1.2 0 .36.72 1 1.1 1.27 1.12.78 1.45 1.5 1.45 2.7 0 1.5-1.45 3.17-4.12 3.17-2.34 0-4.38-1.13-4.38-2.62 0-1.52 1.87-3 4.2-3 .26 0 .5 0 .74 0-.32-.3-.57-.7-.57-1.15 0-.28.1-.55.2-.8-.12.02-.25 0-.38 0C2.25 6.2.96 4.8.96 3.15.98 1.5 2.78 0 4.66 0 5.7 0 8.87 0 8.87 0l-.95 1H6.6zM4.64 8.55c-1.62-.02-3.08.97-3.08 2.15 0 1.2 1.17 2.1 2.8 2.1 2.27 0 3.07-.82 3.07-2.03 0-.15-.02-.3-.06-.43-.2-.7-.82-1.03-1.7-1.63-.3-.1-.67-.15-1.04-.15zm1.82-5.2C6.28 1.95 5.2.82 4.12.8 3.02.74 2.3 1.82 2.5 3.22c.18 1.4 1.2 2.57 2.3 2.6 1.1.03 1.86-1.08 1.68-2.48z" class="cls-1"/></svg>
